!!!!SEGMENT: pl-kk--kk-i-1--006-004_morales-cristobal-de--missa-ave-maria-sanctus.krn
!!!cenid: 15xx:681
!!!COM: Morales, Cristóbal de
!!!COM-rismID: pe30002254
!!!CDT: ~1500-1553
!!!CNT: Spanish
!!!OPR: [Missa] Ave Maria
!!!OTL: Sanctus
!!!OMV: 004
!!!PDT:
!!!AGN:
!!!SMS-siglum: PL-Kk
!!!SMS-shelfmark: Kk.I.1
!!!SMS-shelfwork: 006-004 M
!!!SMS-variant:
!!!SMS-altvar:
!!!NIFC-rismSourceID: 300257960
!!!NIFC-islandoraID: pl-kk:1
!!!URL-pdf-islandora: https://repozytorium.nifc.pl/islandora/object/pl-kk%3A1/datastream/PDF/view
!!!URL-scan: https://polish.musicsources.pl/pl/lokalizacje/galeria/rekopisy/5736 @EN{Scan on Polish Music Sources Website} @PL{Skany w portalu Dziedzictwo Muzyki Polskiej w otwartym dostępie}
!!!ONB-nifc: UWAGA: Cantus (s. 41v-52v, skan 0044-0055), Altus (s. 43r-52r, skan 0235-0244), Tenor (s. 42r-51r, skan 0430-0439), Bassus (s. 40v-50v, skan 0602-0612). Części Mszy: 1. Kyrie, 2. Et in terra, 3. Patrem, 4. Sanctus, 5. Agnus Dei
!!!AIN: 3 empty 1 tenor
!!!key:
**kern	**text	**kern	**text	**kern	**text	**kern	**text
*part4	*part4	*part3	*part3	*part2	*part2	*part1	*part1
*staff4	*staff4	*staff3	*staff3	*staff2	*staff2	*staff1	*staff1
*Iempty	*	*Itenor	*	*Iempty	*	*Iempty	*
*I"BASSVS	*	*I"TENOR	*	*I"ALTVS	*	*I"CANTVS	*
*I'B	*	*I'T	*	*I'A	*	*I'C	*
*ICvox	*	*ICvox	*	*ICvox	*	*ICvox	*
*M2/1	*	*M2/1	*	*M2/1	*	*M2/1	*
*met(C|)	*	*met(C|)	*	*met(C|)	*	*met(C|)	*
*clefF4	*	*clefC4	*	*clefC4	*	*clefC3	*
*k[b-]	*	*k[b-]	*	*k[b-]	*	*k[b-]	*
*F:	*	*F:	*	*F:	*	*F:	*
=1-	=1-	=1-	=1-	=1-	=1-	=1-	=1-
!	!	!	!	!LO:TX:t=P:problem=kreska pseudotaktowa	!	!LO:TX:a:t=9.	!
00r	.	0B-\	San-	1r	.	00r	.
.	.	.	.	0d\	San-	.	.
=2-	=2-	=2-	=2-	=2-	=2-	=2-	=2-
.	.	0F/	.	.	.	.	.
!	!	!	!	!LO:TX:t=P:problem=kreska pseudotaktowa	!	!	!
.	.	.	.	1c\	.	.	.
=3-	=3-	=3-	=3-	=3-	=3-	=3-	=3-
!LO:TX:t=P:problem=kreska pseudotaktowa	!	!LO:TX:t=P:problem=kreska pseudotaktowa	!	!	!	!	!
1r	.	1G/	.	1.B-\	-ctus,	00r	.
0G\	San-	1G/	-ctus,	.	.	.	.
!	!	!	!	!LO:TX:t=P:problem=kreska pseudotaktowa	!	!	!
.	.	.	.	2G/	.	.	.
=4-	=4-	=4-	=4-	=4-	=4-	=4-	=4-
!	!	!LO:TX:a:t=2	!	!	!	!	!
.	.	0d\	san-	1B-\	.	.	.
!LO:TX:t=P:problem=kreska pseudotaktowa	!	!	!	!	!	!	!
1F\	.	.	.	1A\	.	.	.
=5-	=5-	=5-	=5-	=5-	=5-	=5-	=5-
!	!	!LO:TX:a:t=2	!	!LO:TX:t=P:problem=kreska pseudotaktowa	!	!LO:TX:t=P:problem=kreska pseudotaktowa	!
1E-X\	.	0e\	.	1B-\	.	1r	.
1C/	.	.	.	1c\	.	0g\	San-
=6-	=6-	=6-	=6-	=6-	=6-	=6-	=6-
!LO:TX:t=P:problem=kreska pseudotaktowa	!	!LO:TX:t=P:problem=kreska pseudotaktowa	!	!	!	!	!
0D\	-ctus,	0d\	-ctus,	2B-\	.	.	.
.	.	.	.	4A/	.	.	.
!	!	!	!	!LO:TX:t=P:problem=kreska pseudotaktowa	!	!	!
.	.	.	.	4G/	.	.	.
.	.	.	.	2.A/	san:-	1f\	.
!	!	!	!	!LO:TX:t=P:problem=kreska pseudotaktowa	!	!	!
.	.	.	.	4F/	.	.	.
=7-	=7-	=7-	=7-	=7-	=7-	=7-	=7-
*	*ij	*	*	*	*	*	*
2.C/	San-	0r	.	4G/	.	1e-X\	.
.	.	.	.	4A/	.	.	.
*	*	*	*	*custos:A	*	*	*
.	.	.	.	1B-\	.	.	.
4BB-/	.	.	.	.	.	.	.
!	!	!	!	!	!	!LO:TX:t=P:problem=kreska pseudotaktowa	!
1C/	.	.	.	.	.	1c\	.
!	!	!	!	!LO:LB:g=original	!	!	!
!	!	!	!	!LO:TX:t=P:problem=kreska pseudotaktowa	!	!	!
.	.	.	.	2A/	.	.	.
=8-	=8-	=8-	=8-	=8-	=8-	=8-	=8-
!LO:TX:t=P:problem=kreska pseudotaktowa	!	!	!	!	!	!	!
0BB-/	.	0d\	do	0B-\	-ctus,	1d\	.
.	.	.	.	.	.	0f\	.
=9-	=9-	=9-	=9-	=9-	=9-	=9-	=9-
!	!	!LO:TX:t=P:problem=kreska pseudotaktowa	!	!	!	!	!
0C/	-ctus	0c\	mi-	1A\	.	.	.
!	!	!	!	!LO:TX:t=P:problem=kreska pseudotaktowa	!	!	!
.	.	.	.	0G/	.	1eny\	.
=10-	=10-	=10-	=10-	=10-	=10-	=10-	=10-
!	!	!	!	!	!	!LO:TX:t=P:problem=kreska pseudotaktowa	!
0G\	San-	0B-\	-nus	.	.	0d\	-ctus,
.	.	.	.	1B-\	.	.	.
=11-	=11-	=11-	=11-	=11-	=11-	=11-	=11-
*custos:E	*	*	*	*	*	*	*
!LO:TX:t=P:problem=kreska pseudotaktowa	!	!	!	!	!	!	!
1F\	.	0c\	De-	1A\	.	1r	.
!LO:LB:g=original	!	!	!	!LO:TX:t=P:problem=kreska pseudotaktowa	!	!	!
*	*	*	*	*	*	*	*ij
1Eny\	.	.	.	1G/	.	1.g\	San-
=12-	=12-	=12-	=12-	=12-	=12-	=12-	=12-
!	!	!LO:TX:t=P:problem=kreska pseudotaktowa	!	!	!	!	!
0D\	.	00d\	-(us),	1B-\	.	.	.
.	.	.	.	.	.	4f\	.
!	!	!	!	!	!	!LO:TX:t=P:problem=kreska pseudotaktowa	!
.	.	.	.	.	.	4e\	.
!	!	!	!	!LO:TX:t=P:problem=kreska pseudotaktowa	!	!	!
.	.	.	.	1A\	.	2f\	.
.	.	.	.	.	.	2.d\	.
=13-	=13-	=13-	=13-	=13-	=13-	=13-	=13-
!LO:TX:t=P:problem=kreska pseudotaktowa	!	!	!	!	!	!	!
0GG/	-ctus	.	.	1r	.	.	.
.	.	.	.	.	.	4c/	.
.	.	.	.	.	.	4B-/	.
*	*	*	*	*	*	*custos:B-	*
!	!	!	!	!	!	!LO:TX:t=P:problem=kreska pseudotaktowa	!
.	.	.	.	.	.	4A/	.
!	!	!	!	!	!	!LO:LB:g=original	!
.	.	.	.	1.G/	san-	1B-/	.
=14-	=14-	=14-	=14-	=14-	=14-	=14-	=14-
1.D\	San-	0r	.	.	.	0A/	.
.	.	.	.	4F/	.	.	.
!	!	!	!	!LO:TX:t=P:problem=kreska pseudotaktowa	!	!	!
.	.	.	.	4E/	.	.	.
.	.	.	.	2F/	.	.	.
2C/	.	.	.	2E/	.	.	.
=15-	=15-	=15-	=15-	=15-	=15-	=15-	=15-
!	!	!	!	!	!	!LO:TX:t=P:problem=kreska pseudotaktowa	!
*	*	*	*ij	*	*	*	*
2BB-/	.	0d\	do-	2F/	.	0B-/	-ctus
*	*	*	*	*	*	*	*Xij
!LO:TX:t=P:problem=kreska pseudotaktowa	!	!	!	!	!	!	!
2GG/	.	.	.	2.G/	.	.	.
1BB-/	.	.	.	.	.	.	.
.	.	.	.	4D/	.	.	.
.	.	.	.	1G/	.	.	.
=16-	=16-	=16-	=16-	=16-	=16-	=16-	=16-
*	*	*custos:B-	*	*	*	*	*
!	!	!LO:TX:t=P:problem=kreska pseudotaktowa	!	!	!	!	!
1AA/	.	1c\	-mi-	.	.	1r	.
!	!	!	!	!LO:TX:t=P:problem=kreska pseudotaktowa	!	!	!
.	.	.	.	2F/	.	.	.
!	!	!LO:LB:g=original	!	!	!	!	!
2GG/	-tus	1B-\	-nus	2G/	-ctus,	2.d\	do-
*	*Xij	*	*	*	*	*	*
*	*	*	*	*custos:A	*	*	*
!LO:TX:t=P:problem=kreska pseudotaktowa	!	!	!	!LO:TX:t=P:problem=kreska pseudotaktowa	!	!	!
2G\	do-	.	.	2B-\	do-	.	.
!	!	!	!	!	!	!LO:TX:t=P:problem=kreska pseudotaktowa	!
.	.	.	.	.	.	4e\	.
!	!	!	!	!LO:PB:g=original	!	!	!
=17-	=17-	=17-	=17-	=17-	=17-	=17-	=17-
2F\	-mi-	0c\	De-	2A/	-mi-	2f\	-mi-
!LO:TX:t=P:problem=kreska pseudotaktowa	!	!	!	!LO:TX:t=P:problem=kreska pseudotaktowa	!	!	!
2E\	-nus	.	.	2G/	-nus	2g\	-nus
2F\	De-	.	.	2A/	.	2f\	.
1C/	-(us)	.	.	2.G/	De-	2.e\	De-
=18-	=18-	=18-	=18-	=18-	=18-	=18-	=18-
!	!	!LO:TX:t=P:problem=kreska pseudotaktowa	!	!	!	!	!
.	.	00G/	-(us)	.	.	.	.
*	*	*	*Xij	*	*	*	*
.	.	.	.	4F/	-us	4d\	.
!LO:TX:t=P:problem=kreska pseudotaktowa	!	!	!	!LO:TX:t=P:problem=kreska pseudotaktowa	!	!	!
2BB-/	Sab-	.	.	2D/	.	1d\	.
1C/	-ba-	.	.	1E/	sab-	.	.
!	!	!	!	!	!	!LO:TX:t=P:problem=kreska pseudotaktowa	!
.	.	.	.	.	.	2c/	-us;
=19-	=19-	=19-	=19-	=19-	=19-	=19-	=19-
!LO:TX:t=P:problem=kreska pseudotaktowa	!	!	!	!	!	!	!
1GG/	-oth	.	.	2D/	-ba-	2d\	.
*	*	*	*	*	*	*	*ij
.	.	.	.	2.d\	-oth	2B-/	do-
2r	.	.	.	.	.	2B-/	-mi-
.	.	.	.	4c\	.	.	.
!	!	!	!	!LO:TX:t=P:problem=kreska pseudotaktowa	!	!LO:TX:t=P:problem=kreska pseudotaktowa	!
*	*ij	*	*	*	*	*	*
2G\	do-	.	.	2B-\	.	2B-/	-nus
=20-	=20-	=20-	=20-	=20-	=20-	=20-	=20-
2F\	-mi-	0r	.	2A/	.	1c\	De-
*custos:D	*	*	*	*	*	*	*
!LO:TX:t=P:problem=kreska pseudotaktowa	!	!	!	!	!	!	!
2E\	-nus	.	.	1G/	.	.	.
!LO:LB:g=original	!	!	!	!	!	!	!
1D\	De-	.	.	.	.	2d\	.
.	.	.	.	2F/	.	1f\	.
=21-	=21-	=21-	=21-	=21-	=21-	=21-	=21-
!LO:TX:t=P:problem=kreska pseudotaktowa	!	!	!	!LO:TX:t=P:problem=kreska pseudotaktowa	!	!	!
0.C/	-(us)	0c\	Sab-	1G/	.	.	.
.	.	.	.	.	.	4e\	.
*	*	*	*	*	*	*custos:e	*
!	!	!	!	!	!	!LO:TX:t=P:problem=kreska pseudotaktowa	!
.	.	.	.	.	.	4d\	.
!	!	!	!	!	!	!LO:LB:g=original	!
.	.	.	.	2r	.	1e\	-us
*	*	*	*	*	*	*	*Xij
!	!	!	!	!LO:TX:t=P:problem=cztery przekreślone semibreves - oznaczenie synkopy	!	!	!
.	.	.	.	1G/	do-	.	.
=22-	=22-	=22-	=22-	=22-	=22-	=22-	=22-
!	!	!LO:TX:t=P:problem=kreska pseudotaktowa	!	!	!	!	!
.	.	0c\	-ba-	.	.	2r	.
!	!	!	!	!	!	!LO:TX:t=P:problem=kreska pseudotaktowa	!
.	.	.	.	1E/	-mi-	2e\	do-
1AA/	sab-	.	.	.	.	2e\	-mi-
!	!	!	!	!	!	!LO:TX:t=P:problem=kreska pseudotaktowa	!
.	.	.	.	1A\	-n(us)	2e\	-nus
=23-	=23-	=23-	=23-	=23-	=23-	=23-	=23-
1D\	-ba-	0d\	-oth;	.	.	2.f\	De-
.	.	.	.	1F/	De-	.	.
.	.	.	.	.	.	4f\	-(us)
!LO:TX:t=P:problem=kreska pseudotaktowa	!	!	!	!	!	!	!
1BB-/	-oth	.	.	.	.	2f\	sab-
*	*Xij	*	*	*	*	*	*
*	*	*	*	*custos:A	*	*	*
!	!	!	!	!LO:TX:t=P:problem=kreska pseudotaktowa	!	!LO:TX:t=P:problem=kreska pseudotaktowa	!
.	.	.	.	2B-\	-us	2d\	-ba-
!	!	!	!	!LO:LB:g=original	!	!	!
=24-	=24-	=24-	=24-	=24-	=24-	=24-	=24-
!	!	!	!	!	!	!LO:TX:t=P:problem=kreska pseudotaktowa	!
2.C/	Sab-	0c\	.	2A/	ſab-	1e\	-oth;
.	.	.	.	2.G/	-ba-	.	.
4BB-/	.	.	.	.	.	.	.
1AA/	-ba-	.	.	.	.	2r	.
.	.	.	.	4F/	.	.	.
!	!	!	!	!LO:TX:t=P:problem=kreska pseudotaktowa	!	!LO:TX:t=P:problem=kreska pseudotaktowa	!
*	*	*	*	*	*	*	*ij
.	.	.	.	2F/	.	2A/	do-
=25-	=25-	=25-	=25-	=25-	=25-	=25-	=25-
!LO:TX:t=P:problem=kreska pseudotaktowa	!	!LO:TX:t=P:problem=kreska pseudotaktowa	!	!	!	!	!
1GG/	-oth;	0B-\	.	2G/	-oth,	4B-/	-mi-
.	.	.	.	.	.	4A/	.
*	*	*	*	*	*ij	*	*
.	.	.	.	2d\	do-	4B-/	.
!	!	!	!	!	!	!LO:TX:t=P:problem=kreska pseudotaktowa	!
.	.	.	.	.	.	4c/	.
1r	.	.	.	2.d\	-mi-	4d\	-nus
.	.	.	.	.	.	4e\	.
.	.	.	.	.	.	1f\	De-
!	!	!	!	!LO:TX:t=P:problem=kreska pseudotaktowa	!	!	!
.	.	.	.	4c\	.	.	.
=26-	=26-	=26-	=26-	=26-	=26-	=26-	=26-
*	*ij	*	*	*	*	*	*
0G\	do-	1r	.	4B-\	.	.	.
.	.	.	.	4A/	.	.	.
.	.	.	.	2.B-\	-n(us)	4e\	-(us)
!	!	!	!	!	!	!LO:TX:t=P:problem=kreska pseudotaktowa	!
.	.	.	.	.	.	4d\	.
*	*	*	*	*	*	*custos:d	*
.	.	1B-\	do-	.	.	2e\	sab-
.	.	.	.	4G/	.	.	.
!	!	!	!	!	!	!LO:PB:g=original	!
.	.	.	.	1B-\	De-	2d\	-ba-
=27-	=27-	=27-	=27-	=27-	=27-	=27-	=27-
!	!	!	!	!	!	!LO:TX:t=P:problem=kreska pseudotaktowa	!
1.F\	-mi-	1.c\	-mi-	.	.	1f\	-oth
.	.	.	.	4A/	.	.	.
!	!	!	!	!LO:TX:t=P:problem=kreska pseudotaktowa	!	!	!
.	.	.	.	4G/	.	.	.
.	.	.	.	2A\	-us	1r	.
!LO:TX:t=P:problem=kreska pseudotaktowa	!	!LO:TX:t=P:problem=kreska pseudotaktowa	!	!	!	!	!
2G\	-nus	2B-\	.	2B-\	ſab-	.	.
=28-	=28-	=28-	=28-	=28-	=28-	=28-	=28-
2F\	De-	1A\	-nus	2c\	-ba-	2r	.
!	!	!	!	!LO:TX:t=P:problem=kreska pseudotaktowa	!	!	!
2D/	.	.	.	2F/	.	1d\	do-
!LO:TX:t=P:problem=kreska pseudotaktowa	!	!	!	!	!	!	!
1E\	-(us)	1G/	De-	1G/	.	.	.
!	!	!	!	!	!	!LO:TX:t=P:problem=kreska pseudotaktowa	!
.	.	.	.	.	.	2c/	-mi-
=29-	=29-	=29-	=29-	=29-	=29-	=29-	=29-
*	*	*	*	*custos:D	*	*	*
!	!	!	!	!LO:TX:t=P:problem=kreska pseudotaktowa	!	!	!
2.D/	Sab-	0F/	-us	1A\	-oth	2d/	-nus
*	*	*	*	*	*Xij	*	*
.	.	.	.	.	.	2.f\	De-
4C/	.	.	.	.	.	.	.
!	!	!	!	!LO:LB:g=original	!	!	!
1BB-/	-ba-	.	.	1D/	Ple-	.	.
.	.	.	.	.	.	4e\	-(us)
.	.	.	.	.	.	1d\	sab-
=30-	=30-	=30-	=30-	=30-	=30-	=30-	=30-
!LO:TX:t=P:problem=kreska pseudotaktowa	!	!LO:TX:t=P:problem=kreska pseudotaktowa	!	!LO:TX:t=P:problem=kreska pseudotaktowa	!	!	!
1AA/	-oth	0.A\	sab-	1E/	-ni	.	.
!	!	!	!	!	!	!LO:TX:t=P:problem=kreska pseudotaktowa	!
.	.	.	.	.	.	2c/	-ba-
*custos:GG	*	*	*	*	*	*	*
0D\	Sab-	.	.	2.F/	ſunt	1d\	-oth
*	*	*	*	*	*	*	*Xij
.	.	.	.	4E/	.	.	.
=31-	=31-	=31-	=31-	=31-	=31-	=31-	=31-
.	.	.	.	4F/	.	2r	.
.	.	.	.	4G/	.	.	.
!	!	!	!	!	!	!LO:TX:t=P:problem=kreska pseudotaktowa	!
.	.	.	.	1A\	.	2d/	Ple-
!LO:LB:g=original	!	!	!	!	!	!	!
1GG/	-ba-	1B-\	-ba-	.	.	2d/	-ni
!	!	!	!	!LO:TX:t=P:problem=kreska pseudotaktowa	!	!	!
.	.	.	.	2G/	ce-	2d/	ſu(n)t
=32-	=32-	=32-	=32-	=32-	=32-	=32-	=32-
*	*	*custos:G	*	*	*	*	*
!LO:TX:t=P:problem=kreska pseudotaktowa	!	!LO:TX:t=P:problem=kreska pseudotaktowa	!	!	!	!	!
1D\	-oth	0A\	.	2.A/	-li	1f\	.
*	*Xij	*	*	*	*	*	*
!	!	!	!	!LO:TX:t=P:problem=kreska pseudotaktowa	!	!	!
.	.	.	.	4G/	et-	.	.
!	!	!	!	!	!	!LO:TX:t=P:problem=kreska pseudotaktowa	!
1r	.	.	.	4A/	.	1c\	c(ae)-
.	.	.	.	4B-\	.	.	.
.	.	.	.	1c\	.	.	.
!	!	!LO:LB:g=original	!	!	!	!	!
=33-	=33-	=33-	=33-	=33-	=33-	=33-	=33-
!	!	!LO:TX:t=P:problem=kreska pseudotaktowa	!	!	!	!	!
1r	.	00G\	-oth	.	.	1d\	-li
!	!	!	!	!LO:TX:t=P:problem=kreska pseudotaktowa	!	!	!
.	.	.	.	2B-\	-ter-	.	.
0C/	Ple-	.	.	2.c\	-ra	2.e\	et
!	!	!	!	!LO:TX:t=P:problem=kreska pseudotaktowa	!	!LO:TX:t=P:problem=kreska pseudotaktowa	!
.	.	.	.	4B-\	.	4d\	ter-
=34-	=34-	=34-	=34-	=34-	=34-	=34-	=34-
.	.	.	.	4c\	.	4e\	.
*	*	*	*	*	*	*custos:g	*
.	.	.	.	4d\	.	4f\	.
!	!	!	!	!	!	!LO:LB:g=original	!
!	!	!	!	!LO:TX:t=P:problem=kreska pseudotaktowa	!	!LO:TX:t=P:problem=kreska pseudotaktowa	!
.	.	.	.	2e\	.	2.g\	.
!LO:TX:t=P:problem=kreska pseudotaktowa	!	!	!	!	!	!	!
0GG/	.	.	.	2d\	.	.	.
.	.	.	.	.	.	4f\	.
*	*	*	*	*custos:G	*	*	*
.	.	.	.	1B-\	.	2.d\	.
=35-	=35-	=35-	=35-	=35-	=35-	=35-	=35-
.	.	1B-\	Ple-	.	.	.	.
.	.	.	.	.	.	4c/	.
!	!	!	!	!LO:LB:g=original	!	!	!
!	!	!	!	!LO:TX:t=P:problem=kreska pseudotaktowa	!	!	!
.	.	.	.	2G/	et	4d\	.
!	!	!	!	!	!	!LO:TX:t=P:problem=kreska pseudotaktowa	!
.	.	.	.	.	.	4e\	.
1D\	-ni	1F/	-ni	2A/	.	2f\	.
!	!	!	!	!LO:TX:t=P:problem=kreska pseudotaktowa	!	!	!
.	.	.	.	2B-\	.	2d\	.
=36-	=36-	=36-	=36-	=36-	=36-	=36-	=36-
2C/	ſunt	2G/	.	2c\	.	2e\	.
!	!	!LO:TX:t=P:problem=kreska pseudotaktowa	!	!	!	!LO:TX:t=P:problem=kreska pseudotaktowa	!
1G\	c(ae)-	2G/	ſunt	2.B-\	ter-	2.d\	.
*	*	*lig	*	*	*	*	*
.	.	1d\	c(ae)-	.	.	.	.
.	.	.	.	4A/	.	4c/	.
!LO:TX:t=P:problem=kreska pseudotaktowa	!	!	!	!LO:TX:t=P:problem=kreska pseudotaktowa	!	!	!
2F\	.	.	.	2.A/	.	2A/	.
=37-	=37-	=37-	=37-	=37-	=37-	=37-	=37-
2E-X\	-li	1e\	.	.	.	2B-/	.
.	.	.	.	4G/	.	.	.
!	!	!	!	!	!	!LO:TX:t=P:problem=kreska pseudotaktowa	!
2C/	et	.	.	1G/	.	2c/	.
*	*	*Xlig	*	*	*	*	*
!LO:TX:t=P:problem=kreska pseudotaktowa	!	!LO:TX:t=P:problem=kreska pseudotaktowa	!	!	!	!LO:TX:t=P:problem=kreska pseudotaktowa	!
1D\	ter-	1d\	-li,	.	.	1A/	.
.	.	.	.	2F/	.	.	.
=38-	=38-	=38-	=38-	=38-	=38-	=38-	=38-
2GG/	-ra,	1r	.	1G/	.	2G/	-ra
!	!	!	!	!	!	!LO:TX:t=P:problem=trzy przekreślone semibreves - oznaczenie synkopy	!
*	*ij	*	*	*	*	*	*
1G\	c(ae)-	.	.	.	.	1B-/	glo-
!	!	!	!	!LO:TX:t=P:problem=kreska pseudotaktowa	!	!	!
*	*	*	*ij	*	*	*	*
.	.	1d\	Ple-	1D/	-ra;	.	.
1F\	.	.	.	.	.	1A/	-ri-
=39-	=39-	=39-	=39-	=39-	=39-	=39-	=39-
!	!	!LO:TX:t=P:problem=kreska pseudotaktowa	!	!	!	!	!
.	.	1c\	-ni	0r	.	.	.
1Eny\	-li	.	.	.	.	1G/	-a
.	.	1B-\	ſunt	.	.	.	.
!LO:TX:t=P:problem=kreska pseudotaktowa	!	!	!	!	!	!LO:TX:t=P:problem=kreska pseudotaktowa	!
2G\	et	.	.	.	.	2B-/	tu-
=40-	=40-	=40-	=40-	=40-	=40-	=40-	=40-
!	!	!	!	!LO:TX:t=P:problem=kreska pseudotaktowa	!	!	!
2F\	ter-	1c\	c(ae)-	1r	.	2A/	-a
*	*	*	*	*	*	*custos:F	*
2E\	.	.	.	.	.	1G/	.
*custos:GG	*	*	*	*	*	*	*
!LO:TX:t=P:problem=kreska pseudotaktowa	!	!LO:TX:t=P:problem=kreska pseudotaktowa	!	!	!	!	!
1D\	-ra	0d\	-li	1A\	glo-	.	.
*	*Xij	*	*Xij	*	*	*	*
!	!	!	!	!	!	!LO:LB:g=original	!
.	.	.	.	.	.	2F/	.
=41-	=41-	=41-	=41-	=41-	=41-	=41-	=41-
1r	.	.	.	2G/	-ri-	2G/	.
!	!	!	!	!LO:TX:t=P:problem=kreska pseudotaktowa	!	!LO:TX:t=P:problem=kreska pseudotaktowa	!
.	.	.	.	2F/	-a	2A/	.
!LO:LB:g=original	!	!	!	!LO:TX:t=P:problem=kreska pseudotaktowa	!	!	!
2.GG/	glo-	1r	.	1G/	tu-	2.B-/	.
!LO:TX:t=P:problem=kreska pseudotaktowa	!	!	!	!	!	!	!
4AA/	-ri-	.	.	.	.	4A/	.
=42-	=42-	=42-	=42-	=42-	=42-	=42-	=42-
!	!	!	!	!	!	!LO:TX:t=P:problem=kreska pseudotaktowa	!
4BB-/	.	1d\	et	4D/	-a	1F/	.
4C/	.	.	.	4E/	.	.	.
4D/	.	.	.	4F/	.	.	.
*	*	*	*	*custos:A	*	*	*
!LO:TX:t=P:problem=kreska pseudotaktowa	!	!	!	!	!	!	!
4E/	.	.	.	4G/	.	.	.
!	!	!	!	!LO:PB:g=original	!	!	!
2F\	.	2c\	.	2A/	.	1r	.
!	!	!LO:TX:t=P:problem=kreska pseudotaktowa	!	!	!	!	!
2G\	-ri-	2B-\	.	1B-\	.	.	.
=43-	=43-	=43-	=43-	=43-	=43-	=43-	=43-
!LO:TX:t=P:problem=kreska pseudotaktowa	!	!	!	!	!	!LO:TX:t=P:problem=kreska pseudotaktowa	!
1F\	-a-	1c\	ter-	.	.	1f\	glo-
!	!	!	!	!LO:TX:t=P:problem=kreska pseudotaktowa	!	!	!
.	.	.	.	2A/	.	.	.
*	*	*custos:c	*	*	*	*	*
!	!	!LO:TX:t=P:problem=kreska pseudotaktowa	!	!	!	!	!
2.E-X\	-tu-	0G/	-ra	2B-\	.	2.g\	-ri-
.	.	.	.	2.c\	.	.	.
4D/	.	.	.	.	.	4f\	-a
=44-	=44-	=44-	=44-	=44-	=44-	=44-	=44-
2C/	.	.	.	.	.	2e\	.
.	.	.	.	4G/	.	.	.
!LO:TX:t=P:problem=kreska pseudotaktowa	!	!	!	!LO:TX:t=P:problem=kreska pseudotaktowa	!	!	!
2BB-/	.	.	.	2.B-/	glo-	2d\	.
!	!	!	!	!	!	!LO:TX:t=P:problem=kreska pseudotaktowa	!
1.F\	.	1r	.	.	.	1c\	.
.	.	.	.	4A/	-ri-	.	.
.	.	.	.	1A\	-a	.	.
!	!	!LO:LB:g=original	!	!	!	!	!
=45-	=45-	=45-	=45-	=45-	=45-	=45-	=45-
.	.	1c\	glo-	.	.	1f\	tu-
4Eny\	.	.	.	4G/	.	.	.
!LO:TX:t=P:problem=kreska pseudotaktowa	!	!	!	!LO:TX:t=P:problem=kreska pseudotaktowa	!	!	!
4D/	.	.	.	4F/	.	.	.
!	!	!LO:TX:t=P:problem=kreska pseudotaktowa	!	!	!	!	!
2C/	.	1c\	-ri-	2G/	.	2e\	-a,
*	*	*	*	*	*	*	*ij
2F\	.	.	.	2A/	tu-	1f\	glo-
=46-	=46-	=46-	=46-	=46-	=46-	=46-	=46-
!LO:TX:t=P:problem=kreska pseudotaktowa	!	!	!	!	!	!	!
1BB-/	-a,	1d\,	-a	2F/	-a,	.	.
!	!	!	!	!	!	!LO:TX:t=P:problem=kreska pseudotaktowa	!
*	*	*	*	*	*ij	*	*
.	.	.	.	1B-\	glo-	2f\	-ri-
2r	.	1c\	tu-	.	.	2g\	-a
!LO:TX:t=P:problem=kreska pseudotaktowa	!	!	!	!LO:TX:t=P:problem=kreska pseudotaktowa	!	!	!
*	*ij	*	*	*	*	*	*
2F\	glo-	.	.	2A/	.	4f\	.
!	!	!	!	!	!	!LO:TX:t=P:problem=kreska pseudotaktowa	!
.	.	.	.	.	.	4e\	.
=47-	=47-	=47-	=47-	=47-	=47-	=47-	=47-
!	!	!LO:TX:t=P:problem=kreska pseudotaktowa	!	!	!	!	!
2.G\	-ri-	1B-\	-a;	2.B-/	.	1d\	tu-
*custos:E	*	*	*	*	*	*	*
!LO:TX:t=P:problem=kreska pseudotaktowa	!	!	!	!	!	!	!
4F\	-a	.	.	4A/	.	.	.
*	*	*	*	*	*	*custos:f	*
!LO:LB:g=original	!	!	!	!	!	!	!
2E\	tu-	2r	.	2G/	.	2c/	-a
!	!	!	!	!	!	!LO:LB:g=original	!
!	!	!	!	!LO:TX:t=P:problem=kreska pseudotaktowa	!	!	!
*	*	*	*ij	*	*	*	*
2D/	.	2B-/	glo-	2F/	.	1f\	glo-
=48-	=48-	=48-	=48-	=48-	=48-	=48-	=48-
!LO:TX:t=P:problem=kreska pseudotaktowa	!	!	!	!	!	!	!
1C/	-a	2.c\	-ri-	1G/	-ri-	.	.
*	*Xij	*	*	*	*	*	*
!	!	!	!	!	!	!LO:TX:t=P:problem=kreska pseudotaktowa	!
.	.	.	.	.	.	2e\	.
!	!	!LO:TX:t=P:problem=kreska pseudotaktowa	!	!	!	!	!
.	.	4B-/	-a	.	.	.	.
*	*	*	*	*custos:E	*	*	*
1r	.	2A/	tu-	2F/	.	2d\	.
!	!	!	!	!LO:LB:g=original	!	!	!
!	!	!	!	!LO:TX:t=P:problem=kreska pseudotaktowa	!	!	!
.	.	2G/	.	2E/	-a	2c\	-ri-
=49-	=49-	=49-	=49-	=49-	=49-	=49-	=49-
!LO:TX:t=P:problem=kreska pseudotaktowa	!	!LO:TX:t=P:problem=kreska pseudotaktowa	!	!	!	!	!
1BB-/	glo-	1F/	-a	1D/	tu-	2d\	.
*	*	*	*Xij	*	*	*	*
!	!	!	!	!	!	!LO:TX:t=P:problem=kreska pseudotaktowa	!
.	.	.	.	.	.	2f\	-a
2C/	-ri-	1.A\	tu-	2E/	.	2e\	tu-
1D\	-a	.	.	2.F/	.	4d\	.
.	.	.	.	.	.	4c\	.
=50-	=50-	=50-	=50-	=50-	=50-	=50-	=50-
!	!	!	!	!	!	!LO:TX:t=P:problem=kreska pseudotaktowa	!
.	.	.	.	.	.	1d\	-a
*	*	*	*	*	*	*	*Xij
.	.	.	.	4D/	.	.	.
!LO:TX:t=P:problem=kreska pseudotaktowa	!	!	!	!	!	!	!
2BB-/	.	2B-/	.	1G/	.	.	.
2C/	.	1A\	-a:	.	.	1r	.
!	!	!	!	!LO:TX:t=P:problem=kreska pseudotaktowa	!	!	!
2D/	.	.	.	2F/	.	.	.
=51-	=51-	=51-	=51-	=51-	=51-	=51-	=51-
*	*	*custos:d	*	*	*	*	*
!LO:TX:t=P:problem=kreska pseudotaktowa	!	!	!	!	!	!	!
1GG/	.	000G\;	.	2.G/	-a	1B-/	glo-
*	*	*	*	*	*Xij	*	*
.	.	.	.	4F/	glo-	.	.
2C/	tu-	.	.	2E/	-ri-	2c/	-ri-
4BB-/	.	.	.	4D/	-a	1d\	-a
!LO:TX:t=P:problem=kreska pseudotaktowa	!	!	!	!LO:TX:t=P:problem=kreska pseudotaktowa	!	!	!
4AA/	.	.	.	4C/	.	.	.
=52-	=52-	=52-	=52-	=52-	=52-	=52-	=52-
1GG/	.	.	.	1D/	.	.	.
!	!	!	!	!	!	!LO:TX:t=P:problem=kreska pseudotaktowa	!
.	.	.	.	.	.	2B-/	tu-
2C/	.	.	.	2E/	.	2c/	.
!LO:TX:t=P:problem=kreska pseudotaktowa	!	!	!	!LO:TX:t=P:problem=kreska pseudotaktowa	!	!	!
2BB-/	.	.	.	2D/	.	1d\	.
=53-	=53-	=53-	=53-	=53-	=53-	=53-	=53-
0C/	-a,	.	.	0E/	tu-	.	.
.	.	.	.	.	.	4c/	.
!	!	!	!	!	!	!LO:TX:t=P:problem=kreska pseudotaktowa	!
.	.	.	.	.	.	4B-/	.
.	.	.	.	.	.	4c/	.
*	*	*	*	*	*	*custos:c	*
.	.	.	.	.	.	4d/	.
!	!	!	!	!	!	!LO:PB:g=original	!
.	.	.	.	.	.	1c\	.
=54-	=54-	=54-	=54-	=54-	=54-	=54-	=54-
*custos:D	*	*	*	*	*	*	*
0GGl/	.	.	.	0Dl/	-a	.	.
.	.	.	.	.	.	4B-/	.
.	.	.	.	.	.	4A/	-a;
.	.	.	.	.	.	1B-l/	.
!LO:PB:g=original	!	!LO:PB:g=original	!	!	!	!	!
=55||-	=55||-	=55||-	=55||-	=55||-	=55||-	=55||-	=55||-
*M2/1	*	*M2/1	*	*M2/1	*	*M2/1	*
*met(C|)	*	*met(C|)	*	*met(C|)	*	*met(C|)	*
0r	.	1d\	O-	00r	.	00r	.
.	.	2c\	-ſan-	.	.	.	.
!	!	!LO:TX:t=P:problem=kreska pseudotaktowa	!	!	!	!	!
.	.	2A/	-na	.	.	.	.
=56-	=56-	=56-	=56-	=56-	=56-	=56-	=56-
!LO:TX:t=P:problem=kreska pseudotaktowa	!	!	!	!	!	!	!
1D\	O-	2B-/	.	.	.	.	.
.	.	2.A/	in	.	.	.	.
2C/	-ſan-	.	.	.	.	.	.
.	.	4G/	ex-	.	.	.	.
!LO:TX:t=P:problem=kreska pseudotaktowa	!	!LO:TX:t=P:problem=kreska pseudotaktowa	!	!	!	!	!
2AA/	.	2c\	.	.	.	.	.
=57-	=57-	=57-	=57-	=57-	=57-	=57-	=57-
!	!	!	!	!	!	!LO:TX:t=P:problem=kreska pseudotaktowa	!
4BB-/	-na	2B-\	.	00r	.	1d\	O-
4C/	in	.	.	.	.	.	.
4D/	.	1A\	.	.	.	.	.
!LO:TX:t=P:problem=kreska pseudotaktowa	!	!	!	!	!	!	!
4E\	.	.	.	.	.	.	.
4F\	.	.	.	.	.	2c/	-ſan-
4G\	.	.	.	.	.	.	.
!	!	!LO:TX:t=P:problem=kreska pseudotaktowa	!	!	!	!	!
2.A\	.	2F/	.	.	.	2A/	.
=58-	=58-	=58-	=58-	=58-	=58-	=58-	=58-
.	.	2G/	.	.	.	2B-/	-na
4G\	ex-	.	.	.	.	.	.
!	!	!	!	!	!	!LO:TX:t=P:problem=kreska pseudotaktowa	!
1G\	-cel-	2C/	-cel-	.	.	2c/	in
!	!	!LO:TX:t=P:problem=kreska pseudotaktowa	!	!	!	!	!
.	.	1D/	-ſis;	.	.	1A/	ex-
2F\	-ſis;	.	.	.	.	.	.
=59-	=59-	=59-	=59-	=59-	=59-	=59-	=59-
!LO:TX:t=P:problem=kreska pseudotaktowa	!	!LO:TX:t=P:problem=kreska pseudotaktowa	!	!LO:TX:t=P:problem=kreska pseudotaktowa	!	!	!
1G\	.	1r	.	0B-\	O-	2G/	-cel-
!	!	!	!	!	!	!LO:TX:t=P:problem=kreska pseudotaktowa	!
.	.	.	.	.	.	2g\	-ſis,
*	*	*	*ij	*	*	*	*ij
0r	.	1d\	O-	.	.	2f\	O-
.	.	.	.	.	.	2d/	.
=60-	=60-	=60-	=60-	=60-	=60-	=60-	=60-
!	!	!	!	!LO:TX:t=P:problem=kreska pseudotaktowa	!	!	!
.	.	2c\	-ſan-	1F/	.	2.f\	-ſan-
!	!	!LO:TX:t=P:problem=kreska pseudotaktowa	!	!	!	!	!
.	.	2A/	-na-	.	.	.	.
!	!	!	!	!	!	!LO:TX:t=P:problem=kreska pseudotaktowa	!
.	.	.	.	.	.	4e\	-na
*	*	*	*	*custos:G	*	*	*
2r	.	2B-/	-in	1G/	.	2d\	in
*	*	*	*	*	*	*custos:d	*
!LO:TX:t=P:problem=kreska pseudotaktowa	!	!	!	!	!	!	!
*	*ij	*	*	*	*	*	*
2C/	O-	4G/	ex-	.	.	2e\	ex-
!	!	!LO:TX:t=P:problem=kreska pseudotaktowa	!	!	!	!	!
.	.	4A/	.	.	.	.	.
!	!	!	!	!LO:LB:g=original	!	!LO:LB:g=original	!
=61-	=61-	=61-	=61-	=61-	=61-	=61-	=61-
!	!	!	!	!LO:TX:t=P:problem=kreska pseudotaktowa	!	!	!
2BB-/	-ſan-	4B-\	.	0G/	-ſan-	1.d\	-cel-
*	*	*custos:B-	*	*	*	*	*
.	.	4c\	.	.	.	.	.
!	!	!LO:LB:g=original	!	!	!	!	!
!LO:TX:t=P:problem=kreska pseudotaktowa	!	!	!	!	!	!	!
2GG/	-na	2.B-\	-cel-	.	.	.	.
2BB-/	in	.	.	.	.	.	.
.	.	4A/	.	.	.	.	.
2C/	ex-	1G/	-ſis	.	.	4c/	.
*	*	*	*Xij	*	*	*	*
.	.	.	.	.	.	4B-/	.
=62-	=62-	=62-	=62-	=62-	=62-	=62-	=62-
*custos:GG	*	*	*	*	*	*	*
!LO:TX:t=P:problem=kreska pseudotaktowa	!	!	!	!	!	!	!
1D\	-cel-	.	.	00d\	-na-	1A/	.
!	!	!LO:TX:t=P:problem=kreska pseudotaktowa	!	!	!	!	!
.	.	2F/	o-	.	.	.	.
!LO:LB:g=original	!	!	!	!	!	!LO:TX:t=P:problem=kreska pseudotaktowa	!
2GG/	-ſis	2G/	-ſan-	.	.	1G/	-ſis
*	*Xij	*	*	*	*	*	*
!LO:TX:t=P:problem=kreska pseudotaktowa	!	!	!	!	!	!	!
2G\	o-	2B-\	-na	.	.	.	.
=63-	=63-	=63-	=63-	=63-	=63-	=63-	=63-
2F\	-ſan-	2A/	.	.	.	0r	.
!LO:TX:t=P:problem=kreska pseudotaktowa	!	!LO:TX:t=P:problem=kreska pseudotaktowa	!	!	!	!	!
2D/	.	2F/	in	.	.	.	.
2F\	-na	2A/	ex-	.	.	.	.
!	!	!LO:TX:t=P:problem=kreska pseudotaktowa	!	!	!	!	!
2G\	in	2B-\	.	.	.	.	.
=64-	=64-	=64-	=64-	=64-	=64-	=64-	=64-
!LO:TX:t=P:problem=kreska pseudotaktowa	!	!	!	!	!	!	!
1C/	ex-	2c\	.	0e\	.	2r	.
!	!	!	!	!	!	!LO:TX:t=P:problem=kreska pseudotaktowa	!
.	.	2.G/	-cel-	.	.	2c/	O-
1E\	-cel-	.	.	.	.	2B-/	-ſan-
.	.	4A/	.	.	.	.	.
!	!	!LO:TX:t=P:problem=kreska pseudotaktowa	!	!	!	!	!
.	.	[y2B-\	.	.	.	2G/	-na
=65-	=65-	=65-	=65-	=65-	=65-	=65-	=65-
!	!	!LO:N:xstem:cue 	!	!LO:TX:t=P:problem=kreska pseudotaktowa	!	!LO:TX:t=P:problem=kreska pseudotaktowa	!
2.BB-/	-ſis;	4B-]	.	0d\	.	1B-/	in
.	.	4A/	.	.	.	.	.
!	!	!LO:TX:t=P:problem=kreska pseudotaktowa	!	!	!	!	!
.	.	[y2F/	.	.	.	.	.
!LO:TX:t=P:problem=kreska pseudotaktowa	!	!	!	!	!	!	!
4C/	.	.	.	.	.	.	.
!	!	!LO:N:xstem:cue 	!	!	!	!	!
*	*ij	*	*	*	*	*	*
1D\	in	4F]	.	.	.	2A/	ex-
.	.	4G/	.	.	.	.	.
.	.	2.A/	.	.	.	2F/	-cel-
=66-	=66-	=66-	=66-	=66-	=66-	=66-	=66-
!	!	!	!	!	!	!LO:TX:t=P:problem=kreska pseudotaktowa	!
2.C/	ex-	.	.	0r	.	1G/	-ſis
.	.	4G/	.	.	.	.	.
*	*	*custos:F	*	*	*	*	*
.	.	1G/	.	.	.	.	.
!LO:TX:t=P:problem=kreska pseudotaktowa	!	!	!	!	!	!	!
4BB-/	.	.	.	.	.	.	.
1AA/	-cel-	.	.	.	.	2r	.
!	!	!LO:LB:g=original	!	!	!	!	!
!	!	!LO:TX:t=P:problem=kreska pseudotaktowa	!	!	!	!	!
.	.	2F/	.	.	.	2c/	O-
=67-	=67-	=67-	=67-	=67-	=67-	=67-	=67-
!LO:TX:t=P:problem=kreska pseudotaktowa	!	!LO:TX:t=P:problem=kreska pseudotaktowa	!	!LO:TX:t=P:problem=kreska pseudotaktowa	!	!	!
1GG/	-ſis	0G/	-ſis,	0.d\	-in	2B-/	-san-
*	*Xij	*	*	*	*	*	*
!	!	!	!	!	!	!LO:TX:t=P:problem=kreska pseudotaktowa	!
.	.	.	.	.	.	2G/	-na
2r	.	.	.	.	.	2B-/	in
2G\	o-	.	.	.	.	2B-/	ex-
=68-	=68-	=68-	=68-	=68-	=68-	=68-	=68-
*	*	*	*ij	*	*	*	*
2F\	-ſan-	4D/	in-	.	.	1.A/	-cel-
.	.	4E/	.	.	.	.	.
!LO:TX:t=P:problem=kreska pseudotaktowa	!	!	!	!	!	!	!
2D/	-na	4F/	.	.	.	.	.
!	!	!LO:TX:t=P:problem=kreska pseudotaktowa	!	!	!	!	!
.	.	4G/	.	.	.	.	.
2F\	in	2A/	-ex-	2c\	ex-	.	.
!	!	!	!	!	!	!LO:TX:t=P:problem=kreska pseudotaktowa	!
2G\	ex-	2B-\	-cel-	2B-\	.	2G/	-ſis
=69-	=69-	=69-	=69-	=69-	=69-	=69-	=69-
!	!	!LO:TX:t=P:problem=kreska pseudotaktowa	!	!LO:TX:t=P:problem=kreska pseudotaktowa	!	!	!
1E\	-cel-	1G/	-ſis	1c\	-cel-	2r	.
*	*	*	*	*	*	*custos:f	*
.	.	.	.	.	.	2g\	O-
*custos:D	*	*	*	*	*	*	*
!	!	!	!	!	!	!LO:LB:g=original	!
!LO:TX:t=P:problem=kreska pseudotaktowa	!	!	!	!LO:TX:t=P:problem=kreska pseudotaktowa	!	!	!
1D\	-ſis;	2r	.	1d\	-ſis,	2f\	-ſan-
!	!	!	!	!	!	!LO:TX:t=P:problem=kreska pseudotaktowa	!
.	.	2B-\	o-	.	.	2d\	-na
!LO:LB:g=original	!	!	!	!	!	!	!
=70-	=70-	=70-	=70-	=70-	=70-	=70-	=70-
2r	.	2A/	-ſan-	0r	.	2f\	in
*custos:C	*	*	*	*	*	*	*
!	!	!LO:TX:t=P:problem=kreska pseudotaktowa	!	!	!	!	!
*	*ij	*	*	*	*	*	*
2D/	o-	2F/	-na	.	.	2f\	ex-
2C/	-ſan-	2G/	in	.	.	1e\	-cel-
!LO:TX:t=P:problem=kreska pseudotaktowa	!	!	!	!	!	!	!
2AA/	-na	2.A/	ex-	.	.	.	.
=71-	=71-	=71-	=71-	=71-	=71-	=71-	=71-
!	!	!	!	!	!	!LO:TX:t=P:problem=kreska pseudotaktowa	!
*	*	*	*	*	*ij	*	*
2BB-/	in	.	.	1d\	in	1d\	-ſis
*	*	*	*	*	*	*	*Xij
.	.	4G/	.	.	.	.	.
2BB-/	ex-	1G/	-cel-	.	.	.	.
!	!	!	!	!LO:TX:t=P:problem=kreska pseudotaktowa	!	!	!
1AA/	-cel-	.	.	1c\	ex-	1r	.
!	!	!LO:TX:t=P:problem=kreska pseudotaktowa	!	!	!	!	!
.	.	2F/	.	.	.	.	.
=72-	=72-	=72-	=72-	=72-	=72-	=72-	=72-
2GG/	-ſis	2G/	-ſis	1B-\	-cel-	2.d\	O-
!LO:TX:t=P:problem=kreska pseudotaktowa	!	!	!	!	!	!	!
2G\	in	2B-\	in-	.	.	.	.
!	!	!	!	!	!	!LO:TX:t=P:problem=kreska pseudotaktowa	!
.	.	.	.	.	.	4e\	.
!	!	!	!	!LO:TX:t=P:problem=kreska pseudotaktowa	!	!	!
2F\	ex-	2A/	.	1c\	.	2f\	-ſan-
*	*	*custos:B-	*	*	*	*	*
!	!	!LO:TX:t=P:problem=kreska pseudotaktowa	!	!	!	!	!
2.E-X\	-cel-	2G/	-ex-	.	.	2.g\	.
!	!	!LO:LB:g=original	!	!	!	!	!
=73-	=73-	=73-	=73-	=73-	=73-	=73-	=73-
.	.	1B-\	-cel-	1G/	-ſis	.	.
4D/	.	.	.	.	.	4f\	-na
!LO:TX:t=P:problem=kreska pseudotaktowa	!	!	!	!	!	!	!
2BB-/	.	.	.	.	.	1d\	.
!	!	!	!	!LO:TX:t=P:problem=kreska pseudotaktowa	!	!	!
1D\	.	2A\	.	1r	.	.	.
!	!	!LO:TX:t=P:problem=kreska pseudotaktowa	!	!	!	!	!
.	.	2F/	-ſis	.	.	1f\	in
=74-	=74-	=74-	=74-	=74-	=74-	=74-	=74-
!LO:TX:t=P:problem=kreska pseudotaktowa	!	!	!	!	!	!	!
1C/	-ſis	2G/	o-	1c\	in	.	.
*	*Xij	*	*	*	*	*	*
.	.	2.A/	-ſan-	.	.	4e\	.
!	!	!	!	!	!	!LO:TX:t=P:problem=kreska pseudotaktowa	!
.	.	.	.	.	.	4d\	.
!	!	!	!	!LO:TX:t=P:problem=kreska pseudotaktowa	!	!	!
2r	.	.	.	1c\	ex-	2e\	.
.	.	4G/	-na	.	.	.	.
1F\	in	4A/	in	.	.	1f\	ex-
!	!	!LO:TX:t=P:problem=kreska pseudotaktowa	!	!	!	!	!
.	.	4B-\	.	.	.	.	.
=75-	=75-	=75-	=75-	=75-	=75-	=75-	=75-
.	.	4A/	ex-	1d\	-cel-	.	.
.	.	4F/	.	.	.	.	.
!LO:TX:t=P:problem=kreska pseudotaktowa	!	!	!	!	!	!LO:TX:t=P:problem=kreska pseudotaktowa	!
2D/	ex-	1B-\	-cel-	.	.	2f\	-cel-
2Eny\	.	.	.	1c\	.	2g\	-ſis;
*	*	*	*	*	*	*custos:d	*
!	!	!LO:TX:t=P:problem=kreska pseudotaktowa	!	!	!	!	!
2F\	-cel-	2A\	-ſis-	.	.	1f\	.
!	!	!	!	!	!	!LO:LB:g=original	!
=76-	=76-	=76-	=76-	=76-	=76-	=76-	=76-
*	*	*	*	*custos:d	*	*	*
!LO:TX:t=P:problem=kreska pseudotaktowa	!	!	!	!LO:TX:t=P:problem=kreska pseudotaktowa	!	!	!
1BB-/	.	2.B-\	-in	1B-\	-ſis	.	.
!	!	!	!	!	!	!LO:TX:t=P:problem=kreska pseudotaktowa	!
*	*	*	*	*	*Xij	*	*ij
.	.	.	.	.	.	2d\	o-
.	.	4A/	ex-	.	.	.	.
2C/	.	2G/	-cel-	2r	.	2e\	.
*custos:C	*	*	*	*	*	*	*
!	!	!	!	!LO:LB:g=original	!	!	!
!	!	!LO:TX:t=P:problem=kreska pseudotaktowa	!	!	!	!	!
2D/	.	2F/	.	2B-\	o-	1f\	-ſan-
!LO:LB:g=original	!	!	!	!	!	!	!
=77-	=77-	=77-	=77-	=77-	=77-	=77-	=77-
0C/	.	1G/	.	2.c\	-ſan-	.	.
.	.	.	.	.	.	4e\	.
!	!	!	!	!	!	!LO:TX:t=P:problem=kreska pseudotaktowa	!
.	.	.	.	4B-\	.	4d\	.
!	!	!LO:TX:t=P:problem=kreska pseudotaktowa	!	!	!	!	!
.	.	1c\	-ſis	2A/	.	4e\	-na
.	.	.	.	.	.	4f\	.
!	!	!	!	!LO:TX:t=P:problem=kreska pseudotaktowa	!	!	!
.	.	.	.	2G/	.	2.e\	in
=78-	=78-	=78-	=78-	=78-	=78-	=78-	=78-
!LO:TX:t=P:problem=kreska pseudotaktowa	!	!	!	!	!	!	!
1D\	.	2B-\	in	1F/	-na	.	.
.	.	.	.	.	.	4d\	ex-
.	.	2.A/	ex-	.	.	1d\	-cel-
1AA/	.	.	.	1.A\	in	.	.
*	*	*custos:E	*	*	*	*	*
.	.	4G/	-cel-	.	.	.	.
!	!	!LO:PB:g=original	!	!	!	!	!
!	!	!LO:TX:t=P:problem=kreska pseudotaktowa	!	!	!	!LO:TX:t=P:problem=kreska pseudotaktowa	!
.	.	2E/	-ſis	.	.	2c/	.
*	*	*	*Xij	*	*	*	*
=79-	=79-	=79-	=79-	=79-	=79-	=79-	=79-
!	!	!	!	!	!	!LO:TX:t=P:problem=kreska pseudotaktowa	!
0D\	.	2F/	.	.	.	1d\	-ſis
*	*	*	*	*	*	*	*Xij
!	!	!	!	!LO:TX:t=P:problem=kreska pseudotaktowa	!	!	!
.	.	1G/	in	2B-/	ex-	.	.
.	.	.	.	1A\	-cel-	2r	.
!	!	!LO:TX:t=P:problem=kreska pseudotaktowa	!	!	!	!LO:TX:t=P:problem=kreska pseudotaktowa	!
.	.	2F/	.	.	.	2d\	o-
=80-	=80-	=80-	=80-	=80-	=80-	=80-	=80-
*lig	*	*	*	*	*	*	*
1BB-/	.	2.G/	ex-	00.G\;	-ſis	2d\	-ſan-
.	.	.	.	.	.	2d\	-na
.	.	4F/	-cel-	.	.	.	.
1C/	.	1E/	-ſis;	.	.	2c/	in
.	.	.	.	.	.	2c/	ex-
!	!	!	!	!	!	!LO:TX:t=P:problem=kreska pseudotaktowa	!
*Xlig	*	*	*	*	*	*	*
=81-	=81-	=81-	=81-	=81-	=81-	=81-	=81-
00GG/	-ſis;	00D/	.	.	.	2B-/	-cel-
.	.	.	.	.	.	2.d\	.
.	.	.	.	.	.	4c/	.
.	.	.	.	.	.	4B-/	.
.	.	.	.	.	.	4A/	.
=82-	=82-	=82-	=82-	=82-	=82-	=82-	=82-
.	.	.	.	.	.	0B-l/	-ſis;
!	!	!	!	!	!	!LO:PB:g=original	!
=83||-	=83||-	=83||-	=83||-	=83||-	=83||-	=83||-	=83||-
*M2/1	*	*M2/1	*	*M2/1	*	*	*
*met(C|)	*	*met(C|)	*	*met(C|)	*	*	*
!	!	!	!	!	!	!LO:TX:a:t=Benedi\n&colon;ctus ta&colon;\ncet&colon;	!
00r	.	00r	.	1.d\	Be-	0ryy	.
!	!	!	!	!LO:TX:t=P:problem=kreska pseudotaktowa	!	!	!
.	.	.	.	2B-\	-ne-	.	.
=84-	=84-	=84-	=84-	=84-	=84-	=84-	=84-
.	.	.	.	1e\	-dic-	0ryy	.
!	!	!	!	!LO:TX:t=P:problem=kreska pseudotaktowa	!	!	!
.	.	.	.	1d\	-t(us)	.	.
=85-	=85-	=85-	=85-	=85-	=85-	=85-	=85-
!LO:TX:t=P:problem=kreska pseudotaktowa	!	!	!	!	!	!	!
1.D\	Be-	00r	.	2r	.	0ryy	.
.	.	.	.	2d\	qui	.	.
.	.	.	.	2.d\	.	.	.
!LO:TX:t=P:problem=kreska pseudotaktowa	!	!	!	!	!	!	!
2BB-/	-ne-	.	.	.	.	.	.
!	!	!	!	!LO:TX:t=P:problem=kreska pseudotaktowa	!	!	!
.	.	.	.	4c\	.	.	.
=86-	=86-	=86-	=86-	=86-	=86-	=86-	=86-
1E\	-dic-	.	.	4B-/	ue-	0ryy	.
*	*	*	*	*custos:B-	*	*	*
.	.	.	.	4A/	.	.	.
!	!	!	!	!LO:PB:g=original	!	!	!
.	.	.	.	1B-\	.	.	.
!LO:TX:t=P:problem=kreska pseudotaktowa	!	!	!	!	!	!	!
0D\	-tus,	.	.	.	.	.	.
.	.	.	.	4A/	.	.	.
!	!	!	!	!LO:TX:t=P:problem=kreska pseudotaktowa	!	!	!
.	.	.	.	4G/	.	.	.
=87-	=87-	=87-	=87-	=87-	=87-	=87-	=87-
!	!	!LO:TX:t=P:problem=kreska pseudotaktowa	!	!	!	!	!
.	.	1.A\	Be-	2F/	-nit,	0ryy	.
*	*	*	*	*	*ij	*	*
.	.	.	.	2f\	qui	.	.
0r	.	.	.	2.f\	ue-	.	.
.	.	2F/	-ne-	.	.	.	.
!	!	!	!	!LO:TX:t=P:problem=kreska pseudotaktowa	!	!	!
.	.	.	.	4e\	.	.	.
=88-	=88-	=88-	=88-	=88-	=88-	=88-	=88-
.	.	1B-\	-dic-	4d\	.	0ryy	.
.	.	.	.	4c\	.	.	.
.	.	.	.	1d\	.	.	.
!	!	!LO:TX:t=P:problem=kreska pseudotaktowa	!	!	!	!	!
*	*ij	*	*	*	*	*	*
1.F\	Be-	1A\	-tus	.	.	.	.
.	.	.	.	4c\	.	.	.
!	!	!	!	!LO:TX:t=P:problem=kreska pseudotaktowa	!	!	!
.	.	.	.	4B-\	.	.	.
=89-	=89-	=89-	=89-	=89-	=89-	=89-	=89-
.	.	2r	.	1A\	-nit	0ryy	.
*	*	*	*	*	*Xij	*	*
!LO:TX:t=P:problem=kreska pseudotaktowa	!	!LO:TX:t=P:problem=kreska pseudotaktowa	!	!	!	!	!
2D/	-ne-	2d\	qui	.	.	.	.
0G\	-dic-	2.d\	.	2r	.	.	.
!	!	!	!	!LO:TX:t=P:problem=kreska pseudotaktowa	!	!	!
.	.	.	.	2B-\	in	.	.
!	!	!LO:TX:t=P:problem=kreska pseudotaktowa	!	!	!	!	!
.	.	4c\	ue-	.	.	.	.
=90-	=90-	=90-	=90-	=90-	=90-	=90-	=90-
.	.	4B-\	.	2B-\	no-	0ryy	.
*	*	*custos:B-	*	*	*	*	*
.	.	4A\	.	.	.	.	.
!	!	!LO:LB:g=original	!	!	!	!	!
!	!	!	!	!LO:TX:t=P:problem=kreska pseudotaktowa	!	!	!
.	.	1B-\	.	2B-\	-mi-	.	.
!LO:TX:t=P:problem=kreska pseudotaktowa	!	!	!	!	!	!	!
1F\	-tus	.	.	2c\	-ne	.	.
*	*Xij	*	*	*	*	*	*
.	.	4A/	.	1d\	.	.	.
!	!	!LO:TX:t=P:problem=kreska pseudotaktowa	!	!	!	!	!
.	.	4G/	.	.	.	.	.
=91-	=91-	=91-	=91-	=91-	=91-	=91-	=91-
2r	.	2F/	-nit	.	.	0ryy	.
*custos:F	*	*	*	*	*	*	*
!LO:TX:t=P:problem=kreska pseudotaktowa	!	!	!	!	!	!	!
2F\	qui	2f\	qui	4c\	.	.	.
!	!	!	!	!LO:TX:t=P:problem=kreska pseudotaktowa	!	!	!
.	.	.	.	4B-\	do-	.	.
!LO:PB:g=original	!	!	!	!	!	!	!
2F\	ue-	2.f\	.	1c\	-mi-	.	.
!LO:TX:t=P:problem=kreska pseudotaktowa	!	!	!	!	!	!	!
2F\	-nit	.	.	.	.	.	.
!	!	!LO:TX:t=P:problem=kreska pseudotaktowa	!	!	!	!	!
.	.	4e\	ue-	.	.	.	.
=92-	=92-	=92-	=92-	=92-	=92-	=92-	=92-
2G\	.	4d\	.	2B-\	-(ni);	0ryy	.
.	.	4c\	.	.	.	.	.
*	*	*	*	*custos:f	*	*	*
!	!	!	!	!LO:TX:t=P:problem=kreska pseudotaktowa	!	!	!
*	*	*	*	*	*ij	*	*
2.D/	in	1d\	.	2f\	in	.	.
!	!	!	!	!LO:LB:g=original	!	!	!
.	.	.	.	2.f\	no-	.	.
4E\	no-	.	.	.	.	.	.
!LO:TX:t=P:problem=kreska pseudotaktowa	!	!	!	!	!	!	!
2.F\	-mi-	4c\	.	.	.	.	.
!	!	!LO:TX:t=P:problem=kreska pseudotaktowa	!	!LO:TX:t=P:problem=kreska pseudotaktowa	!	!	!
.	.	4B-\	.	4e\	-mi-	.	.
=93-	=93-	=93-	=93-	=93-	=93-	=93-	=93-
.	.	2A/	-nit;	4d\	-ne	0ryy	.
4E\	.	.	.	4c\	.	.	.
*	*	*	*ij	*	*	*	*
4D/	.	2.B-\	qui	1d\	do-	.	.
!LO:TX:t=P:problem=kreska pseudotaktowa	!	!	!	!	!	!	!
4C/	.	.	.	.	.	.	.
2BB-/	.	.	.	.	.	.	.
.	.	4A/	.	.	.	.	.
2C/	.	1G/	ue-	4c\	-mi-	.	.
!	!	!	!	!LO:TX:t=P:problem=kreska pseudotaktowa	!	!	!
.	.	.	.	4B-\	.	.	.
=94-	=94-	=94-	=94-	=94-	=94-	=94-	=94-
!LO:TX:t=P:problem=kreska pseudotaktowa	!	!	!	!	!	!	!
0D\	-ne	.	.	1A\	-(ni)	0ryy	.
.	.	4F/	.	.	.	.	.
!	!	!LO:TX:t=P:problem=kreska pseudotaktowa	!	!	!	!	!
.	.	4E/	.	.	.	.	.
.	.	1F/	-nit	2r	.	.	.
*	*	*	*Xij	*	*	*	*
!	!	!	!	!LO:TX:t=P:problem=kreska pseudotaktowa	!	!	!
.	.	.	.	2A/	in	.	.
=95-	=95-	=95-	=95-	=95-	=95-	=95-	=95-
2r	.	2r	.	2A/	no-	0ryy	.
!	!	!LO:TX:t=P:problem=kreska pseudotaktowa	!	!	!	!	!
2D/	in	2F/	in	2A/	-mi-	.	.
*	*	*custos:F	*	*	*	*	*
2D/	no-	2F/	no-	1.B-\	-ne	.	.
!	!	!LO:LB:g=original	!	!	!	!	!
!LO:TX:t=P:problem=kreska pseudotaktowa	!	!	!	!	!	!	!
2D/	-mi-	2F/	-mi-	.	.	.	.
=96-	=96-	=96-	=96-	=96-	=96-	=96-	=96-
!	!	!LO:TX:t=P:problem=kreska pseudotaktowa	!	!	!	!	!
1E\	-ne-	1G/	-ne	.	.	0ryy	.
!	!	!	!	!LO:TX:t=P:problem=kreska pseudotaktowa	!	!	!
.	.	.	.	2c\	.	.	.
2F\	.	2A/	do-	0d\	do-	.	.
!LO:TX:t=P:problem=kreska pseudotaktowa	!	!	!	!	!	!	!
2.G\	-do-	2.B-\	-mi-	.	.	.	.
=97-	=97-	=97-	=97-	=97-	=97-	=97-	=97-
.	.	.	.	.	.	0ryy	.
*custos:D	*	*	*	*	*	*	*
4F\	-mi-	4A/	.	.	.	.	.
!LO:LB:g=original	!	!	!	!	!	!	!
!LO:TX:t=P:problem=kreska pseudotaktowa	!	!LO:TX:t=P:problem=kreska pseudotaktowa	!	!	!	!	!
2D/	.	2F/	.	.	.	.	.
2E\	.	2G/	.	1c\	-mi-	.	.
2F\	.	2A/	-ni;	.	.	.	.
=98-	=98-	=98-	=98-	=98-	=98-	=98-	=98-
!LO:TX:t=P:problem=kreska pseudotaktowa	!	!LO:TX:t=P:problem=kreska pseudotaktowa	!	!LO:TX:t=P:problem=kreska pseudotaktowa	!	!	!
0BB-/	-ni	1B-\	.	00d\	-(ni)	0ryy	.
*	*	*	*	*	*Xij	*	*
.	.	2r	.	.	.	.	.
*	*	*	*ij	*	*	*	*
.	.	2F/	in	.	.	.	.
=99-	=99-	=99-	=99-	=99-	=99-	=99-	=99-
2r	.	2F/	no-	.	.	0ryy	.
!	!	!LO:TX:t=P:problem=kreska pseudotaktowa	!	!	!	!	!
*	*ij	*	*	*	*	*	*
2BB-/	in	2F/	-mi-	.	.	.	.
2BB-/	no-	1.G/	-ne	.	.	.	.
!LO:TX:t=P:problem=kreska pseudotaktowa	!	!	!	!	!	!	!
2BB-/	-mi-	.	.	.	.	.	.
=100-	=100-	=100-	=100-	=100-	=100-	=100-	=100-
1C/	-ne	.	.	0r	.	0ryy	.
!	!	!LO:TX:t=P:problem=kreska pseudotaktowa	!	!	!	!	!
.	.	2A/	.	.	.	.	.
2D/	do-	2B-\	.	.	.	.	.
!LO:TX:t=P:problem=kreska pseudotaktowa	!	!	!	!	!	!	!
2E\	.	2.c\	do-	.	.	.	.
=101-	=101-	=101-	=101-	=101-	=101-	=101-	=101-
2.F\	-mi-	.	.	2r	.	0ryy	.
.	.	4B-\	.	.	.	.	.
!	!	!	!	!LO:TX:t=P:problem=kreska pseudotaktowa	!	!	!
.	.	4A\	.	2F/	in	.	.
!	!	!LO:TX:t=P:problem=kreska pseudotaktowa	!	!	!	!	!
4E\	.	4G/	.	.	.	.	.
*	*	*custos:B-	*	*	*	*	*
2D/	.	2A/	.	2F/	no-	.	.
!	!	!LO:LB:g=original	!	!	!	!	!
!LO:TX:t=P:problem=kreska pseudotaktowa	!	!	!	!	!	!	!
2BB-/	-ni	2.B-\	-mi-	2F/	-mi-	.	.
=102-	=102-	=102-	=102-	=102-	=102-	=102-	=102-
*	*	*	*	*custos:A	*	*	*
!	!	!	!	!LO:TX:t=P:problem=kreska pseudotaktowa	!	!	!
1E\	in	.	.	1G/	-ne	0ryy	.
.	.	4A/	.	.	.	.	.
.	.	1G/	.	.	.	.	.
!	!	!	!	!LO:LB:g=original	!	!	!
1D\	no-	.	.	4A/	do-	.	.
.	.	.	.	4G/	.	.	.
!	!	!LO:TX:t=P:problem=kreska pseudotaktowa	!	!	!	!	!
.	.	2F/	.	4A/	.	.	.
!	!	!	!	!LO:TX:t=P:problem=kreska pseudotaktowa	!	!	!
.	.	.	.	4B-/	.	.	.
=103-	=103-	=103-	=103-	=103-	=103-	=103-	=103-
!	!	!LO:TX:t=P:problem=kreska pseudotaktowa	!	!	!	!	!
1.C/	-mi-	1G/	-ni	4c\	.	0ryy	.
*	*	*	*Xij	*	*	*	*
.	.	.	.	4B-\	.	.	.
.	.	.	.	4c\	.	.	.
!	!	!	!	!LO:TX:t=P:problem=kreska pseudotaktowa	!	!	!
.	.	.	.	4d\	.	.	.
.	.	2r	.	2e\	.	.	.
!LO:TX:t=P:problem=kreska pseudotaktowa	!	!LO:TX:t=P:problem=kreska pseudotaktowa	!	!	!	!	!
2BB-/	-ne	2B-\	in	2.d\	.	.	.
=104-	=104-	=104-	=104-	=104-	=104-	=104-	=104-
2D/	do-	2B-\	no-	.	.	0ryy	.
.	.	.	.	4c\	.	.	.
*custos:C	*	*	*	*	*	*	*
2E\	.	2B-\	-mi-	1B-\	.	.	.
!LO:LB:g=original	!	!LO:TX:t=P:problem=kreska pseudotaktowa	!	!	!	!	!
1C/	-mi-	1c\	.	.	.	.	.
!	!	!	!	!LO:TX:t=P:problem=kreska pseudotaktowa	!	!	!
.	.	.	.	2A/	-mi-	.	.
=105-	=105-	=105-	=105-	=105-	=105-	=105-	=105-
!LO:TX:t=P:problem=kreska pseudotaktowa	!	!	!	!	!	!	!
1BB-/	-ni	1d\	-ne	2B-,\	-ni;	0ryy	.
!	!	!	!	!LO:TX:t=P:problem=kreska pseudotaktowa	!	!	!
*	*Xij	*	*	*	*ij	*	*
.	.	.	.	2F/	in	.	.
2r	.	2c\	.	2F/	no-	.	.
2BB-/	in	2.d\	do-	2F/	-mi-	.	.
=106-	=106-	=106-	=106-	=106-	=106-	=106-	=106-
2BB-/	no-	.	.	1.G/	-ne	0ryy	.
.	.	4c\	-mi-	.	.	.	.
!LO:TX:t=P:problem=kreska pseudotaktowa	!	!	!	!	!	!	!
2BB-/	-mi-	4B-\	.	.	.	.	.
!	!	!LO:TX:t=P:problem=kreska pseudotaktowa	!	!	!	!	!
.	.	4A/	.	.	.	.	.
!	!	!LO:TX:t=P:problem=kreska pseudotaktowa	!	!	!	!	!
1C/	-ne	1G/	-ni;	.	.	.	.
!	!	!	!	!LO:TX:t=P:problem=kreska pseudotaktowa	!	!	!
.	.	.	.	2E/	do-	.	.
=107-	=107-	=107-	=107-	=107-	=107-	=107-	=107-
2.D\	do-	1r	.	2.F/	-mi-	0ryy	.
!LO:TX:t=P:problem=kreska pseudotaktowa	!	!	!	!LO:TX:t=P:problem=kreska pseudotaktowa	!	!	!
4E\	.	.	.	4G/	.	.	.
*	*	*	*	*custos:G	*	*	*
2F\	.	2r	.	2A/	.	.	.
!	!	!	!	!LO:LB:g=original	!	!	!
!	!	!LO:TX:t=P:problem=kreska pseudotaktowa	!	!	!	!	!
*	*	*	*ij	*	*	*	*
2.G\	.	2B-/	in	4G/	.	.	.
!	!	!	!	!LO:TX:t=P:problem=kreska pseudotaktowa	!	!	!
.	.	.	.	4A/	.	.	.
=108-	=108-	=108-	=108-	=108-	=108-	=108-	=108-
.	.	2B-/	no-	4B-\	.	0ryy	.
4F\	.	.	.	4A\	.	.	.
*	*	*custos:c	*	*	*	*	*
!	!	!LO:TX:t=P:problem=kreska pseudotaktowa	!	!	!	!	!
4E\	.	2B-/	-mi-	4G/	.	.	.
!LO:TX:t=P:problem=kreska pseudotaktowa	!	!	!	!	!	!	!
4D\	.	.	.	4F/	.	.	.
!	!	!LO:PB:g=original	!	!	!	!	!
!	!	!	!	!LO:TX:t=P:problem=kreska pseudotaktowa	!	!	!
1E\	-mi-	1c\	-ne	1G/	-ni	.	.
*	*	*	*	*	*Xij	*	*
=109-	=109-	=109-	=109-	=109-	=109-	=109-	=109-
!LO:TX:t=P:problem=kreska pseudotaktowa	!	!LO:TX:t=P:problem=kreska pseudotaktowa	!	!	!	!	!
1D\	-ni;	1d\	do-	2r	.	0ryy	.
!	!	!	!	!LO:TX:t=P:problem=kreska pseudotaktowa	!	!	!
.	.	.	.	2A/	in	.	.
2r	.	2c\	.	2A/	no-	.	.
!LO:TX:t=P:problem=kreska pseudotaktowa	!	!	!	!	!	!	!
2D/	in	2.d\	-mi-	2A/	-mi-	.	.
=110-	=110-	=110-	=110-	=110-	=110-	=110-	=110-
!	!	!	!	!LO:TX:t=P:problem=kreska pseudotaktowa	!	!	!
2D/	no-	.	.	0B-\	-(n)e	0ryy	.
.	.	4c\	.	.	.	.	.
*custos:E	*	*	*	*	*	*	*
!LO:TX:t=P:problem=kreska pseudotaktowa	!	!	!	!	!	!	!
2D/	-mi-	4B-/	.	.	.	.	.
!	!	!LO:TX:t=P:problem=kreska pseudotaktowa	!	!	!	!	!
.	.	4A/	.	.	.	.	.
!LO:LB:g=original	!	!	!	!	!	!	!
2.E\	-ne	2.G/	.	.	.	.	.
!LO:TX:t=P:problem=kreska pseudotaktowa	!	!	!	!	!	!	!
4D/	.	4B-/	.	.	.	.	.
=111-	=111-	=111-	=111-	=111-	=111-	=111-	=111-
2C/	.	2A/	.	2r	.	0ryy	.
*	*	*	*	*	*ij	*	*
2BB-/	.	1G/	.	2d\	in	.	.
!LO:TX:t=P:problem=kreska pseudotaktowa	!	!	!	!	!	!	!
1D\	do-	.	.	2d\	no-	.	.
!	!	!LO:TX:t=P:problem=kreska pseudotaktowa	!	!LO:TX:t=P:problem=kreska pseudotaktowa	!	!	!
.	.	2F/	-ni	2d\	-mi-	.	.
*	*	*	*Xij	*	*	*	*
=112-	=112-	=112-	=112-	=112-	=112-	=112-	=112-
1C/	-mi-	2.G/	do-	2.e\	-(n)e	0ryy	.
*	*	*	*	*	*Xij	*	*
.	.	4F/	-mi-	4d\	.	.	.
2C/	-ni,	4G/	.	4c\	.	.	.
.	.	4A/	.	4B-\	.	.	.
*	*ij	*	*	*	*	*	*
1GG/	do-	1B-\	.	1d\	.	.	.
=113-	=113-	=113-	=113-	=113-	=113-	=113-	=113-
.	.	.	.	.	.	0ryy	.
!LO:TX:t=P:problem=kreska pseudotaktowa	!	!LO:TX:t=P:problem=kreska pseudotaktowa	!	!LO:TX:t=P:problem=kreska pseudotaktowa	!	!	!
2AA/	.	2A/	.	2c\	do-	.	.
2BB-/	-mi-	1G/	-ni;	2d\	.	.	.
2C/	.	.	.	4c\	.	.	.
.	.	.	.	4B-\	-mi-	.	.
=114-	=114-	=114-	=114-	=114-	=114-	=114-	=114-
*custos:D	*	*custos:d	*	*custos:B-	*	*	*
!	!	!LO:TX:b:t=oSanna\nvt ſupra&colon;	!	!	!	!	!
0D\l;	-ni	0Fl/	.	0A\l;	-(ni);	0ryy	.
==	==	==	==	==	==	==	==
*-	*-	*-	*-	*-	*-	*-	*-
!!!system-decoration: s1,s2,s3,s4
!!!RDF**kern: l = terminal long
!!!ENC: Mateusz Solarz
!!!END: 2022-02-09
!!!ENC: Leszek Kubiak
!!!END: 2022-02-12
!!!YEC: Copyright 2022 Narodowy Instytut Fryderyka Chopina (https://polishscores.org)
!!!YEM: Licence CC BY 4.0 (https://creativecommons.org/licenses/by/4.0)
